symbols/web/dock/materialsymbolssharp/dock_wght500fill1_24px.svg

<svg xmlns="http://www.w3.org/2000/svg" height="24" width="24"><path d="M7.9 23.1V21.1H16.1V23.1ZM5.9 19.1V0.9H18.1V19.1ZM8.175 13.825H15.825V6.175H8.175Z"/></svg>

<svg xmlns="http://www.w3.org/2000/svg" height="24" width="24"><path d="M7.9 23.1v-2h8.2v2Zm-2-4V.9h12.2v18.2Zm2.275-5.275h7.65v-7.65h-7.65Z"/></svg>
